src/actions/symbolic/rectangle-make-corners-round-symbolic.svg

<svg width="16" height="16" version="1.1" viewBox="0 0 16 16" xmlns="http://www.w3.org/2000/svg">
 <path d="m6 2c-2.216 0-4 1.784-4 4v4c0 2.216 1.784 4 4 4h4c2.216 0 4-1.784 4-4v-4c0-2.216-1.784-4-4-4h-4zm0 1h4c1.662 0 3 1.338 3 3v4c0 1.662-1.338 3-3 3h-4c-1.662 0-3-1.338-3-3v-4c0-1.662 1.338-3 3-3z" fill="#363636"/>
 <path d="m1.5 0c-0.831 0-1.5 0.669-1.5 1.5 0 0.831 0.669 1.5 1.5 1.5 0.831 0 1.5-0.669 1.5-1.5 0-0.831-0.669-1.5-1.5-1.5zm-0.025391 1c0.0085456-4.3039e-4 0.016734 0 0.025391 0 0.277 0 0.5 0.223 0.5 0.5s-0.223 0.5-0.5 0.5-0.5-0.223-0.5-0.5c0-0.26834 0.2097-0.48666 0.47461-0.5z" fill="#363636" fill-rule="evenodd" stroke-linecap="round" stroke-linejoin="round" stroke-width="2" style="paint-order:stroke fill markers"/>
 <path d="m14.5 0c-0.831 0-1.5 0.669-1.5 1.5 0 0.831 0.669 1.5 1.5 1.5s1.5-0.669 1.5-1.5c0-0.831-0.669-1.5-1.5-1.5zm-0.02539 1c0.008545-4.3039e-4 0.016734 0 0.02539 0 0.277 0 0.5 0.223 0.5 0.5s-0.223 0.5-0.5 0.5-0.5-0.223-0.5-0.5c0-0.26834 0.2097-0.48666 0.47461-0.5z" fill="#363636" fill-rule="evenodd" stroke-linecap="round" stroke-linejoin="round" stroke-width="2" style="paint-order:stroke fill markers"/>
 <path d="m1.5 13c-0.831 0-1.5 0.669-1.5 1.5s0.669 1.5 1.5 1.5c0.831 0 1.5-0.669 1.5-1.5s-0.669-1.5-1.5-1.5zm-0.025391 1c0.008546-4.3e-4 0.016735 0 0.025391 0 0.277 0 0.5 0.223 0.5 0.5s-0.223 0.5-0.5 0.5-0.5-0.223-0.5-0.5c0-0.26834 0.2097-0.48666 0.47461-0.5z" fill="#363636" fill-rule="evenodd" stroke-linecap="round" stroke-linejoin="round" stroke-width="2" style="paint-order:stroke fill markers"/>
 <path d="m14.5 13c-0.831 0-1.5 0.669-1.5 1.5s0.669 1.5 1.5 1.5 1.5-0.669 1.5-1.5-0.669-1.5-1.5-1.5zm-0.02539 1c0.0085-4.3e-4 0.01673 0 0.02539 0 0.277 0 0.5 0.223 0.5 0.5s-0.223 0.5-0.5 0.5-0.5-0.223-0.5-0.5c0-0.26834 0.2097-0.48666 0.47461-0.5z" fill="#363636" fill-rule="evenodd" stroke-linecap="round" stroke-linejoin="round" stroke-width="2" style="paint-order:stroke fill markers"/>
</svg>

<svg xmlns="http://www.w3.org/2000/svg" width="16" height="16">
    <path fill="#050505" fill-opacity=".7" d="M6 2C3.784 2 2 3.784 2 6v4c0 2.216 1.784 4 4 4h4c2.216 0 4-1.784 4-4V6c0-2.216-1.784-4-4-4H6zm0 1h4c1.662 0 3 1.338 3 3v4c0 1.662-1.338 3-3 3H6c-1.662 0-3-1.338-3-3V6c0-1.662 1.338-3 3-3z"/>
    <path fill="#050505" fill-opacity=".7" fill-rule="evenodd" d="M1.5 0C.669 0 0 .669 0 1.5S.669 3 1.5 3 3 2.331 3 1.5 2.331 0 1.5 0zm-.025 1H1.5a.499.499 0 1 1 0 1 .5.5 0 0 1-.025-1zM14.5 0c-.831 0-1.5.669-1.5 1.5S13.669 3 14.5 3 16 2.331 16 1.5 15.331 0 14.5 0zm-.025 1h.025a.499.499 0 1 1 0 1 .5.5 0 0 1-.025-1zM1.5 13c-.831 0-1.5.669-1.5 1.5S.669 16 1.5 16 3 15.331 3 14.5 2.331 13 1.5 13zm-.025 1H1.5a.499.499 0 1 1 0 1 .5.5 0 0 1-.025-1zM14.5 13c-.831 0-1.5.669-1.5 1.5s.669 1.5 1.5 1.5 1.5-.669 1.5-1.5-.669-1.5-1.5-1.5zm-.025 1h.025a.499.499 0 1 1 0 1 .5.5 0 0 1-.025-1z" style="paint-order:stroke fill markers"/>
</svg>
